X: 21232
Q: "Slow."
M: C
L: 1/8
K: Bm
c |\
b>fa>e f>de>B | d>AB>F d3e |\
f>de>B d>Ad>F | E<EF>A B3 |]
a |\
b>af>a b>af>b | a>fe>f a3f |\
b>af>a b>af>d | B<Bd>e f3a |\
b>fa>e f>de>B | d>AB>F d3e |\
f>de>B d>Ad>F | E<EF>A B3 |]


